images/money.svg

<svg xmlns="http://www.w3.org/2000/svg" width="24" height="24" viewBox="0 0 24 24"><path d="M12.164 7.165c-1.15.191-1.702 1.233-1.231 2.328.498 1.155 1.921 1.895 3.094 1.603 1.039-.257 1.519-1.252 1.069-2.295-.471-1.095-1.784-1.827-2.932-1.636zm1.484 2.998l.104.229-.219.045-.097-.219c-.226.041-.482.035-.719-.027l-.065-.387c.195.03.438.058.623.02l.125-.041c.221-.109.152-.387-.176-.453-.245-.054-.893-.014-1.135-.552-.136-.304-.035-.621.356-.766l-.108-.239.217-.045.104.229c.159-.026.345-.036.563-.017l.087.383c-.17-.021-.353-.041-.512-.008l-.06.016c-.309.082-.21.375.064.446.453.105.994.139 1.208.612.173.385-.028.648-.36.774zm10.312 1.057l-3.766-8.22c-6.178 4.004-13.007-.318-17.951 4.454l3.765 8.22c5.298-4.492 12.519-.238 17.952-4.454zm-2.803-1.852c-.375.521-.653 1.117-.819 1.741-3.593 1.094-7.891-.201-12.018 1.241-.667-.354-1.503-.576-2.189-.556l-1.135-2.487c.432-.525.772-1.325.918-2.094 3.399-1.226 7.652.155 12.198-1.401.521.346 1.13.597 1.73.721l1.315 2.835zm2.843 5.642c-6.857 3.941-12.399-1.424-19.5 5.99l-4.5-9.97 1.402-1.463 3.807 8.406-.002.007c7.445-5.595 11.195-1.176 18.109-4.563.294.648.565 1.332.684 1.593z"/></svg>

<?xml version="1.0" encoding="utf-8"?>
<!-- Generator: Adobe Illustrator 22.1.0, SVG Export Plug-In . SVG Version: 6.00 Build 0)  -->
<svg version="1.1" id="Layer_1" xmlns="http://www.w3.org/2000/svg" xmlns:xlink="http://www.w3.org/1999/xlink" x="0px" y="0px"
	 viewBox="0 0 24 24" style="enable-background:new 0 0 24 24;" xml:space="preserve">
<style type="text/css">
	.st0{fill:#FFFFFF;}
</style>
<path class="st0" d="M12.2,7.2c-1.1,0.2-1.7,1.2-1.2,2.3c0.5,1.2,1.9,1.9,3.1,1.6c1-0.3,1.5-1.3,1.1-2.3C14.6,7.7,13.3,7,12.2,7.2z
	 M13.6,10.2l0.1,0.2l-0.2,0l-0.1-0.2c-0.2,0-0.5,0-0.7,0l-0.1-0.4c0.2,0,0.4,0.1,0.6,0l0.1,0c0.2-0.1,0.2-0.4-0.2-0.5
	c-0.2-0.1-0.9,0-1.1-0.6c-0.1-0.3,0-0.6,0.4-0.8l-0.1-0.2l0.2,0L12.7,8c0.2,0,0.3,0,0.6,0l0.1,0.4c-0.2,0-0.4,0-0.5,0l-0.1,0
	c-0.3,0.1-0.2,0.4,0.1,0.4c0.5,0.1,1,0.1,1.2,0.6C14.2,9.8,14,10,13.6,10.2z M24,11.2L20.2,3c-6.2,4-13-0.3-18,4.5L6,15.7
	C11.3,11.2,18.5,15.4,24,11.2z M21.2,9.4c-0.4,0.5-0.7,1.1-0.8,1.7c-3.6,1.1-7.9-0.2-12,1.2c-0.7-0.4-1.5-0.6-2.2-0.6L5,9.3
	C5.4,8.8,5.8,8,5.9,7.2C9.3,6,13.6,7.4,18.1,5.8c0.5,0.3,1.1,0.6,1.7,0.7C19.8,6.5,21.2,9.4,21.2,9.4z M24,15
	c-6.9,3.9-12.4-1.4-19.5,6L0,11l1.4-1.5L5.2,18l0,0c7.4-5.6,11.2-1.2,18.1-4.6C23.6,14.1,23.9,14.7,24,15z"/>
</svg>
